X:2191
T:Hug shin seose y shiaull mean 
T:Mannin veg veen
C:Traditional
O:Isle of Man
Z:Clague collection
B:Kiaull Vannin #191 
N:"Mannin veg veen" in Kiaull Yn They 1 p26 
N:(Bar 8 added)
M:2/4 
L:1/4 
K:G 
A|e>e|e/d/ c/B/|A A|A A|e>f|e B|d2-|d c/d/| 
e e/e/|e/d/ c/B/|A A/G/|E G/A/|B e|d B|A2-|A|| 

